X:254
T: Ganji shang zishan
N: C1750
O: China, Liaoning Shenyang
S: III, 251]
R: Xiaodiao, Shangzishan diao]
M: 2/4
L: 1/16
K: F
G2E2D2D2 | G2E2D2D2 | G2E2D2D2 | G2E2D2D2
z2ddd2d2 | A3cA2c2 | d2d4e2 | dfdcA4
d2A2c2A2 | G3Ac2cA | G3Ac2cA | G3Ac4
z2dfd2c2 | df^c2A4
z2A2A2e2 | d2df^c2A2 | G2AcAGGE | D8
A3GFGAc | G8
z2A2A2e2 | d2df^c2A2 | G2AcAGGE | D8

